X:1
T:The Third Day
T:George Crawford Hugg, 1903
T:The Third Day
T:Public Domain
T:Public Domain
C:George Crawford Hugg, 1903
Z:Public Domain
%%score ( 1 2 ) 3
L:1/8
M:4/4
K:Bb
V:1 treble 
V:2 treble 
V:3 bass 
V:1
 [DF]3 D [DF][^C=E] [CA]>[CG] | [^CG]4 [DF]4 | [DB]3 [DB] [DB][DB] [=Ed]>[Ec] | [Fc]4 (c2 ^c2) | %4
w: 1.~Soft the even- ing bells are|ing, Night|her sa- ble shade is fling-|ing, Death *|
w: 2.~Ro- man guards their vi- gils|ing, Birds|on dew- gemmed bough are sleep-|ing Brok- *|
w: 3.~See the arm- èd sen- tries|ing! Lo,|the seal- èd tomb is break-|ing. And *|
 [Fd]3 [Fd] [Fd][^FA] [Fc]>[FB] | [GB]4 [^CG]4 | [DF]3 [DF] [EF][EF] [EG]>[EA] | [DB]6 z2 || %8
w: dread- ful grip is cling- ing,|To the|form with- in the tomb. *||
w: heart- ed Ma- ry’s weep- ing,|While the|King sleeps sweet- ly on. An-|gels|
w: Lord to life is wak- ing!|Yea, He|com- eth forth in might! *||
[M:3/4]"^Refrain" [DF]2 [^C=E]2 [DF]2 | [^CG]6 | [DF]2 [Fd]2 [DB]2 | [DF]6 | [EG]2 [E^F]2 [EG]2 | %13
w: |||||
w: of light watch|thro’|the night! Wait-|ing|the glo- ri-|
w: |||||
 [Gd]2 [Gc]2 G2 | [FB]6 | [FA]6 | [DF]2 [^C=E]2 [DF]2 | [^CG]6 | [DF]2 [Fd]2 [DB]2 | [DF]6 | %20
w: |||||||
w: ous dawn- ing,|ing|full|well, sin, death|and|hell, Van- quished|will|
w: |||||||
 [EG]2 [Gd]2 [Gc]2 | [DF]2 [FB]2 [EA]2 | [Ec]6 | [DB]6 |] %24
w: ||||
w: be in the|morn- ing. *|||
w: ||||
V:2
 x3 F3/2 x7/2 | x8 | x8 | x4 F4 | x8 | x8 | x8 | x8 ||[M:3/4] x6 | x6 | x6 | x6 | x6 | x4 G2 | x6 | %15
w: ring-|||with||||||||||||
w: keep-|||en||||||||||Know-||
w: shak-|||the||||||||||||
 x6 | x6 | x6 | x6 | x6 | x6 | x6 | x6 | x6 |] %24
w: |||||||||
w: |||||||||
w: |||||||||
V:3
 [B,,F,]3 [B,,F,] [B,,F,][B,,G,] [B,,=E,]>[B,,E,] | [B,,=E,]4 [B,,F,]4 | %2
 [G,B,]3 [G,B,] [G,B,][G,B,] [C,B,]>[C,B,] | [F,A,]4 [F,A,]4 | %4
 [B,,B,]3 [B,,B,] [B,,B,][D,C] [D,A,]>[D,D] | [E,B,]4 [=E,B,]4 | %6
 [F,B,]3 [F,B,] [F,A,][F,A,] [F,B,]>[F,C] | [B,,B,]6 z2 ||[M:3/4] [B,,F,]2 [B,,G,]2 [B,,F,]2 | %9
 [B,,=E,]6 | [B,,F,]2 [B,,F,]2 [B,,F,]2 | [B,,B,]6 | [E,B,]2 [E,A,]2 [E,B,]2 | %13
 [=E,C]2 [E,C]2 [E,C]2 | [F,D]6 | [F,C]6 | [B,,B,]2 [B,,G,]2 [B,,F,]2 | [B,,=E,]6 | %18
 [B,,F,]2 [B,,F,]2 [B,,F,]2 | [B,,B,]6 | [E,B,]2 [E,B,]2 [E,C]2 | [F,B,]2 [F,D]2 [F,C]2 | [F,A,]6 | %23
 [B,,B,]6 |] %24

